!! 00000] TT[WS
!!!OTL: Xiu hebao
!!!ARE: Asia, China,ÿShanxi Linxian
!! Ethnic Group: Han
!! WI, 115 (1)
!!!SCT: J0134
!!!YEM: Copyright 1995, estate of Helmut Schaffrath.
**kern
*ICvox
*Ivox
*M4/4
*k[f#c#]
*D:
{8.b
16aa
8ff#
8ee
4b
8b
8ff#
=1
4ee
8ff#
8ee
4dd
4b}
=2
{4b
8ee
8ee
4ee
8ee
8b
=3
8.a
16b
8g
8f#
2e}
=4
{4b
4b
8.ee
16aa
8ee
8dd
=5
8aa
8cc#
8b
8a
8g
8r
8g
8e}
=6
{8dd
4ee
8a
8b
8dd
8a
8f#
=7
1e}
==
!!!AGN: Xiaodiao. Qingge
!!!ONB: ESAC (Essen Associative Code) Database: CHINA
!!!AMT: simple quadruple
!!!AIN: vox
!!!EED: Helmut Schaffrath
!!!EEV: 1.0
*-
